public/images/icon-youtube.svg

<svg width="17" height="17" viewBox="0 0 17 17" xmlns="http://www.w3.org/2000/svg">
<g clip-path="url(#clip0_1_397)">
<path d="M15.5083 5.32292C15.3339 4.6664 14.8202 4.14935 14.1679 3.97388C12.9856 3.65503 8.24481 3.65503 8.24481 3.65503C8.24481 3.65503 3.50401 3.65503 2.3217 3.97388C1.66942 4.14937 1.1557 4.6664 0.981345 5.32292C0.664551 6.51289 0.664551 8.99567 0.664551 8.99567C0.664551 8.99567 0.664551 11.4784 0.981345 12.6684C1.1557 13.3249 1.66942 13.8204 2.3217 13.9959C3.50401 14.3148 8.24481 14.3148 8.24481 14.3148C8.24481 14.3148 12.9856 14.3148 14.1679 13.9959C14.8202 13.8204 15.3339 13.3249 15.5083 12.6684C15.8251 11.4784 15.8251 8.99567 15.8251 8.99567C15.8251 8.99567 15.8251 6.51289 15.5083 5.32292ZM6.6943 11.2498V6.74149L10.6567 8.99572L6.6943 11.2498Z" fill="currentColor"/>
</g>
<defs>
<clipPath id="clip0_1_397">
<rect width="15.99" height="15.99" fill="currentColor" transform="translate(0.25 0.98999)"/>
</clipPath>
</defs>
</svg>

<svg xmlns="http://www.w3.org/2000/svg" width="17" height="17"><g clip-path="url(#a)"><path fill="currentColor" d="M15.5083 5.323c-.1744-.6566-.6881-1.1737-1.3404-1.3491-1.1823-.3189-5.923-.3189-5.923-.3189s-4.7409 0-5.9232.3189c-.6523.1755-1.166.6925-1.3404 1.349C.6646 6.513.6646 8.9957.6646 8.9957s0 2.4827.3167 3.6727c.1744.6565.6881 1.152 1.3404 1.3275 1.1823.3189 5.9231.3189 5.9231.3189s4.7408 0 5.9231-.3189c.6523-.1755 1.166-.671 1.3404-1.3275.3168-1.19.3168-3.6727.3168-3.6727s0-2.4828-.3168-3.6728Zm-8.814 5.9268V6.7415l3.9624 2.2542-3.9624 2.2541Z"/></g><defs><clipPath id="a"><path fill="currentColor" d="M.25.99h15.99v15.99H.25z"/></clipPath></defs></svg>
